(Generated with: DXF2GCODE, Version: Py3.7.10 PyQt5.10.1, Date: $Date: Fri Oct 25 20:45:56 2019 +0200 $)
(Created from file: /home/lucas/钢铁侠.dxf)
(Output format description: G-CODE for LinuxCNC)
(Time: Mon Jul 19 18:04:03 2021)
G21 (Units in millimeters)
G90 (Absolute programming)
G64 (Default cutting) G17 (XY plane) G40 (Cancel radius comp.) G49 (Cancel length comp.)
G0 Z 100.000 

(*** LAYER: _U+56FE_U+5C42 1 ***)
T1 M6
S6000

(* SHAPE Nr: 8 *)
G0 X  -2.861 Y 159.590
M3 M8
G0 Z  30.000 
F150
G1 Z  30.000
F300
G1 X  -3.860 Y 159.567
G1 X  -4.581 Y 159.539
G1 X  -5.302 Y 159.502
G1 X  -6.023 Y 159.457
G1 X  -6.743 Y 159.404
G1 X  -7.529 Y 159.337
G1 X  -8.315 Y 159.261
G1 X  -9.100 Y 159.177
G1 X  -9.883 Y 159.083
G1 X -10.666 Y 158.982
G1 X -11.425 Y 158.874
G1 X -12.182 Y 158.759
G1 X -12.938 Y 158.636
G1 X -13.693 Y 158.505
G1 X -14.446 Y 158.366
G1 X -15.198 Y 158.219
G1 X -15.949 Y 158.064
G1 X -16.697 Y 157.902
G1 X -17.533 Y 157.710
G1 X -18.366 Y 157.507
G1 X -19.196 Y 157.295
G1 X -20.024 Y 157.071
G1 X -20.849 Y 156.838
G1 X -21.671 Y 156.594
G1 X -22.474 Y 156.345
G1 X -23.273 Y 156.084
G1 X -24.069 Y 155.814
G1 X -24.861 Y 155.532
G1 X -25.650 Y 155.241
G1 X -26.348 Y 154.972
G1 X -27.042 Y 154.695
G1 X -27.733 Y 154.409
G1 X -28.420 Y 154.114
G1 X -29.103 Y 153.810
G1 X -29.782 Y 153.498
G1 X -30.424 Y 153.193
G1 X -31.061 Y 152.880
G1 X -31.694 Y 152.559
G1 X -32.322 Y 152.229
G1 X -32.947 Y 151.891
G1 X -33.567 Y 151.545
G1 X -34.158 Y 151.204
G1 X -34.744 Y 150.856
G1 X -35.326 Y 150.500
G1 X -35.903 Y 150.136
G1 X -36.476 Y 149.764
G1 X -36.998 Y 149.414
G1 X -37.517 Y 149.057
G1 X -38.031 Y 148.694
G1 X -38.539 Y 148.324
G1 X -39.043 Y 147.947
G1 X -39.542 Y 147.564
G1 X -40.036 Y 147.174
G1 X -40.546 Y 146.761
G1 X -41.049 Y 146.340
G1 X -41.546 Y 145.912
G1 X -42.037 Y 145.477
G1 X -42.521 Y 145.035
G1 X -43.000 Y 144.586
G1 X -43.471 Y 144.130
G1 X -43.930 Y 143.674
G1 X -44.382 Y 143.211
G1 X -44.827 Y 142.742
G1 X -45.265 Y 142.266
G1 X -45.696 Y 141.783
G1 X -46.120 Y 141.295
G1 X -46.545 Y 140.789
G1 X -46.964 Y 140.277
G1 X -47.374 Y 139.759
G1 X -47.777 Y 139.234
G1 X -48.171 Y 138.704
G1 X -48.558 Y 138.168
G1 X -48.936 Y 137.626
G1 X -49.307 Y 137.078
G1 X -49.676 Y 136.514
G1 X -50.036 Y 135.945
G1 X -50.389 Y 135.371
G1 X -50.732 Y 134.791
G1 X -51.067 Y 134.206
G1 X -51.394 Y 133.617
G1 X -51.711 Y 133.023
G1 X -52.020 Y 132.424
G1 X -52.321 Y 131.817
G1 X -52.615 Y 131.206
G1 X -52.899 Y 130.590
G1 X -53.175 Y 129.971
G1 X -53.442 Y 129.348
G1 X -53.701 Y 128.722
G1 X -53.950 Y 128.092
G1 X -54.208 Y 127.413
G1 X -54.457 Y 126.731
G1 X -54.696 Y 126.046
G1 X -54.925 Y 125.358
G1 X -55.145 Y 124.666
G1 X -55.355 Y 123.971
G1 X -55.569 Y 123.229
G1 X -55.772 Y 122.484
G1 X -55.965 Y 121.736
G1 X -56.149 Y 120.986
G1 X -56.322 Y 120.233
G1 X -56.489 Y 119.460
G1 X -56.646 Y 118.684
G1 X -56.793 Y 117.906
G1 X -56.930 Y 117.126
G1 X -57.062 Y 116.318
G1 X -57.184 Y 115.508
G1 X -57.295 Y 114.696
G1 X -57.397 Y 113.883
G1 X -57.494 Y 113.025
G1 X -57.580 Y 112.166
G1 X -57.656 Y 111.306
G1 X -57.722 Y 110.445
G1 X -57.778 Y 109.588
G1 X -57.824 Y 108.731
G1 X -57.861 Y 107.873
G1 X -57.889 Y 107.015
G1 X -57.910 Y 105.985
G1 X -57.919 Y 104.955
G1 X -57.020 Y  88.762
G1 X -56.125 Y  72.637
G1 X -44.895 Y  27.857
G1 X -21.616 Y   6.856
G1 X  -2.849 Y   6.856
F150
G1 Z  30.000
G0 Z 100.000 
M9 M5

(* SHAPE Nr: 3 *)
G0 X  -2.615 Y 161.590
M3 M8
G0 Z  30.000 
G1 Z  30.000
F300
G1 X  -2.093 Y 161.581
G1 X  -1.572 Y 161.566
G1 X  -0.977 Y 161.544
G1 X  -0.381 Y 161.515
G1 X   0.214 Y 161.482
G1 X   0.808 Y 161.443
G1 X   1.403 Y 161.398
G1 X   2.076 Y 161.341
G1 X   2.750 Y 161.278
G1 X   3.422 Y 161.209
G1 X   4.094 Y 161.133
G1 X   4.766 Y 161.051
G1 X   5.436 Y 160.963
G1 X   6.129 Y 160.866
G1 X   6.821 Y 160.762
G1 X   7.512 Y 160.652
G1 X   8.202 Y 160.535
G1 X   8.891 Y 160.411
G1 X   9.578 Y 160.282
G1 X  10.265 Y 160.145
G1 X  10.950 Y 160.003
G1 X  11.633 Y 159.854
G1 X  12.279 Y 159.706
G1 X  12.923 Y 159.553
G1 X  13.565 Y 159.394
G1 X  14.206 Y 159.229
G1 X  14.845 Y 159.058
G1 X  15.483 Y 158.880
G1 X  16.119 Y 158.697
G1 X  16.753 Y 158.508
G1 X  17.443 Y 158.294
G1 X  18.131 Y 158.073
G1 X  18.817 Y 157.844
G1 X  19.499 Y 157.607
G1 X  20.180 Y 157.363
G1 X  20.857 Y 157.112
G1 X  21.476 Y 156.874
G1 X  22.092 Y 156.630
G1 X  22.705 Y 156.379
G1 X  23.316 Y 156.122
G1 X  23.923 Y 155.858
G1 X  24.528 Y 155.587
G1 X  25.130 Y 155.310
G1 X  25.700 Y 155.040
G1 X  26.267 Y 154.763
G1 X  26.831 Y 154.480
G1 X  27.392 Y 154.190
G1 X  27.949 Y 153.895
G1 X  28.503 Y 153.593
G1 X  29.054 Y 153.285
G1 X  29.566 Y 152.990
G1 X  30.075 Y 152.690
G1 X  30.581 Y 152.384
G1 X  31.084 Y 152.073
G1 X  31.582 Y 151.756
G1 X  32.078 Y 151.433
G1 X  32.554 Y 151.115
G1 X  33.028 Y 150.791
G1 X  33.497 Y 150.462
G1 X  33.963 Y 150.127
G1 X  34.425 Y 149.787
G1 X  34.882 Y 149.442
G1 X  35.336 Y 149.092
G1 X  35.786 Y 148.736
G1 X  36.252 Y 148.359
G1 X  36.713 Y 147.976
G1 X  37.169 Y 147.587
G1 X  37.619 Y 147.192
G1 X  38.065 Y 146.792
G1 X  38.506 Y 146.386
G1 X  38.942 Y 145.975
G1 X  39.372 Y 145.558
G1 X  39.784 Y 145.150
G1 X  40.190 Y 144.736
G1 X  40.591 Y 144.318
G1 X  40.986 Y 143.894
G1 X  41.376 Y 143.466
G1 X  41.761 Y 143.033
G1 X  42.141 Y 142.594
G1 X  42.497 Y 142.172
G1 X  42.849 Y 141.745
G1 X  43.196 Y 141.314
G1 X  43.537 Y 140.879
G1 X  43.873 Y 140.440
G1 X  44.204 Y 139.997
G1 X  44.529 Y 139.550
G1 X  44.849 Y 139.099
G1 X  45.164 Y 138.644
G1 X  45.473 Y 138.186
G1 X  45.782 Y 137.716
G1 X  46.085 Y 137.242
G1 X  46.383 Y 136.764
G1 X  46.675 Y 136.283
G1 X  46.961 Y 135.798
G1 X  47.242 Y 135.310
G1 X  47.516 Y 134.819
G1 X  47.785 Y 134.325
G1 X  48.048 Y 133.827
G1 X  48.305 Y 133.326
G1 X  48.581 Y 132.774
G1 X  48.849 Y 132.217
G1 X  49.111 Y 131.658
G1 X  49.366 Y 131.096
G1 X  49.614 Y 130.530
G1 X  49.855 Y 129.961
G1 X  50.089 Y 129.390
G1 X  50.316 Y 128.815
G1 X  50.546 Y 128.212
G1 X  50.769 Y 127.606
G1 X  50.984 Y 126.997
G1 X  51.193 Y 126.386
G1 X  51.394 Y 125.772
G1 X  51.588 Y 125.156
G1 X  51.774 Y 124.537
G1 X  51.959 Y 123.897
G1 X  52.137 Y 123.255
G1 X  52.307 Y 122.611
G1 X  52.470 Y 121.965
G1 X  52.626 Y 121.318
G1 X  52.775 Y 120.668
G1 X  52.914 Y 120.029
G1 X  53.046 Y 119.389
G1 X  53.172 Y 118.747
G1 X  53.291 Y 118.104
G1 X  53.403 Y 117.460
G1 X  53.512 Y 116.794
G1 X  53.615 Y 116.127
G1 X  53.711 Y 115.458
G1 X  53.801 Y 114.789
G1 X  53.884 Y 114.119
G1 X  53.964 Y 113.414
G1 X  54.038 Y 112.708
G1 X  54.105 Y 112.001
G1 X  54.165 Y 111.293
G1 X  54.218 Y 110.585
G1 X  54.264 Y 109.883
G1 X  54.305 Y 109.179
G1 X  54.339 Y 108.476
G1 X  54.367 Y 107.772
G1 X  54.389 Y 107.068
G1 X  54.405 Y 106.355
G1 X  54.415 Y 105.643
G1 X  54.419 Y 104.930
G1 X  54.418 Y 104.873
G1 X  53.518 Y  88.652
G1 X  52.618 Y  72.431
G1 X  52.612 Y  72.367
G1 X  52.603 Y  72.305
G1 X  52.589 Y  72.243
G1 X  41.261 Y  27.075
G1 X  41.237 Y  26.994
G1 X  41.207 Y  26.915
G1 X  41.169 Y  26.839
G1 X  41.126 Y  26.767
G1 X  41.077 Y  26.699
G1 X  41.022 Y  26.635
G1 X  40.961 Y  26.576
G1 X  17.177 Y   5.114
G1 X  17.115 Y   5.061
G1 X  17.048 Y   5.015
G1 X  16.978 Y   4.973
G1 X  16.904 Y   4.938
G1 X  16.828 Y   4.909
G1 X  16.750 Y   4.886
G1 X  16.670 Y   4.869
G1 X  16.589 Y   4.859
G1 X  16.507 Y   4.856
G1 X  -2.627 Y   4.856
F150
G1 Z  30.000
G0 Z 100.000 
M9 M5

(* SHAPE Nr: 5 *)
G0 X  -2.873 Y 104.578
M3 M8
G0 Z  30.000 
G1 Z  30.000
F250
G1 X -10.366 Y 104.578
G1 X -24.711 Y 143.327
G1 X -24.746 Y 143.412
G1 X -24.790 Y 143.492
G1 X -24.840 Y 143.569
G1 X -24.898 Y 143.640
G1 X -24.961 Y 143.706
G1 X -25.030 Y 143.766
G1 X -25.105 Y 143.819
G1 X -25.184 Y 143.866
G1 X -25.267 Y 143.904
G1 X -25.353 Y 143.935
G1 X -25.442 Y 143.958
G1 X -25.532 Y 143.973
G1 X -25.624 Y 143.980
G1 X -25.715 Y 143.978
G1 X -25.806 Y 143.967
G1 X -25.896 Y 143.949
G1 X -25.984 Y 143.922
G1 X -26.069 Y 143.888
G1 X -26.150 Y 143.845
G1 X -50.654 Y 129.649
G1 X -50.734 Y 129.597
G1 X -50.810 Y 129.538
G1 X -50.879 Y 129.471
G1 X -50.941 Y 129.399
G1 X -50.997 Y 129.320
G1 X -51.044 Y 129.237
G1 X -51.083 Y 129.150
G1 X -51.114 Y 129.059
G1 X -51.136 Y 128.966
G1 X -51.149 Y 128.871
G1 X -51.153 Y 128.775
G1 X -50.837 Y  94.283
G1 X -55.807 Y  85.169
G1 X -55.847 Y  85.085
G1 X -55.880 Y  84.998
G1 X -55.904 Y  84.909
G1 X -55.920 Y  84.817
G1 X -55.928 Y  84.725
G1 X -55.927 Y  84.632
G1 X -55.917 Y  84.540
G1 X -53.529 Y  68.844
G1 X -53.510 Y  68.749
G1 X -53.482 Y  68.657
G1 X -53.445 Y  68.567
G1 X -53.400 Y  68.482
G1 X -53.346 Y  68.402
G1 X -25.866 Y  31.016
G1 X -25.807 Y  30.943
G1 X -25.742 Y  30.876
G1 X -25.670 Y  30.815
G1 X -25.594 Y  30.762
G1 X -25.512 Y  30.716
G1 X -25.427 Y  30.677
G1 X -25.338 Y  30.647
G1 X -25.247 Y  30.626
G1 X -25.154 Y  30.612
G1 X -25.061 Y  30.608
G1 X  -2.873 Y  30.608
F150
G1 Z  30.000
G0 Z 100.000 
M9 M5

(* SHAPE Nr: 0 *)
G0 X  -2.627 Y 104.578
M3 M8
G0 Z  30.000 
G1 Z  30.000
F350
G1 X   4.867 Y 104.578
G1 X  19.212 Y 143.327
G1 X  19.245 Y 143.407
G1 X  19.286 Y 143.484
G1 X  19.333 Y 143.558
G1 X  19.386 Y 143.626
G1 X  19.445 Y 143.690
G1 X  19.510 Y 143.749
G1 X  19.579 Y 143.801
G1 X  19.653 Y 143.848
G1 X  19.730 Y 143.888
G1 X  19.811 Y 143.921
G1 X  19.894 Y 143.947
G1 X  19.979 Y 143.965
G1 X  20.065 Y 143.976
G1 X  20.152 Y 143.980
G1 X  20.239 Y 143.976
G1 X  20.325 Y 143.964
G1 X  20.410 Y 143.945
G1 X  20.493 Y 143.919
G1 X  20.574 Y 143.886
G1 X  20.651 Y 143.845
G1 X  45.155 Y 129.649
G1 X  45.229 Y 129.602
G1 X  45.298 Y 129.548
G1 X  45.363 Y 129.489
G1 X  45.422 Y 129.424
G1 X  45.475 Y 129.354
G1 X  45.522 Y 129.279
G1 X  45.562 Y 129.201
G1 X  45.595 Y 129.120
G1 X  45.621 Y 129.036
G1 X  45.640 Y 128.950
G1 X  45.650 Y 128.863
G1 X  45.653 Y 128.775
G1 X  45.338 Y  94.283
G1 X  50.307 Y  85.169
G1 X  50.343 Y  85.096
G1 X  50.373 Y  85.020
G1 X  50.397 Y  84.943
G1 X  50.414 Y  84.863
G1 X  50.425 Y  84.783
G1 X  50.429 Y  84.702
G1 X  50.427 Y  84.621
G1 X  50.418 Y  84.540
G1 X  48.036 Y  68.844
G1 X  48.021 Y  68.765
G1 X  47.999 Y  68.687
G1 X  47.971 Y  68.612
G1 X  47.938 Y  68.539
G1 X  47.898 Y  68.468
G1 X  47.853 Y  68.402
G1 X  20.373 Y  31.016
G1 X  20.320 Y  30.949
G1 X  20.261 Y  30.888
G1 X  20.197 Y  30.831
G1 X  20.129 Y  30.781
G1 X  20.057 Y  30.736
G1 X  19.981 Y  30.697
G1 X  19.902 Y  30.665
G1 X  19.820 Y  30.640
G1 X  19.737 Y  30.622
G1 X  19.652 Y  30.612
G1 X  19.567 Y  30.608
G1 X  -2.627 Y  30.608
F150
G1 Z  30.000
G0 Z 100.000 
M9 M5

(* SHAPE Nr: 6 *)
G0 X  -2.873 Y  78.520
M3 M8
G0 Z  30.000 
G1 Z  30.000
G1 X  -6.994 Y  78.520
G1 X -48.778 Y  94.695
G1 Z  30.000
G0 Z 100.000 
M9 M5

(* SHAPE Nr: 1 *)
G0 X  -2.627 Y  78.520
M3 M8
G0 Z  30.000 
G1 Z  30.000
G1 X   1.495 Y  78.520
G1 X  43.284 Y  94.695
G1 Z  30.000
G0 Z 100.000 
M9 M5

(* SHAPE Nr: 7 *)
G0 X  -6.159 Y  77.374
M3 M8
G0 Z  30.000 
G1 Z  30.000
F200
G1 X  -6.202 Y  77.070
G1 X  -6.226 Y  76.921
G1 X  -6.281 Y  76.613
G1 X  -6.343 Y  76.306
G1 X  -6.413 Y  76.001
G1 X  -6.490 Y  75.698
G1 X  -6.575 Y  75.397
G1 X  -6.667 Y  75.098
G1 X  -6.766 Y  74.801
G1 X  -6.873 Y  74.507
G1 X  -6.986 Y  74.216
G1 X  -7.107 Y  73.928
G1 X  -7.235 Y  73.643
G1 X  -7.370 Y  73.361
G1 X  -7.512 Y  73.083
G1 X  -7.661 Y  72.808
G1 X  -7.816 Y  72.537
G1 X  -7.979 Y  72.269
G1 X  -8.147 Y  72.006
G1 X  -8.322 Y  71.748
G1 X  -8.504 Y  71.493
G1 X  -8.692 Y  71.243
G1 X  -8.885 Y  70.999
G1 X  -9.085 Y  70.759
G1 X  -9.290 Y  70.524
G1 X  -9.501 Y  70.294
G1 X  -9.717 Y  70.069
G1 X  -9.939 Y  69.850
G1 X -10.166 Y  69.636
G1 X -10.398 Y  69.428
G1 X -10.636 Y  69.225
G1 X -10.878 Y  69.028
G1 X -11.125 Y  68.838
G1 X -11.376 Y  68.653
G1 X -11.632 Y  68.475
G1 X -11.892 Y  68.303
G1 X -12.157 Y  68.137
G1 X -12.425 Y  67.978
G1 X -12.697 Y  67.825
G1 X -12.973 Y  67.679
G1 X -13.252 Y  67.540
G1 X -13.535 Y  67.407
G1 X -13.820 Y  67.282
G1 X -14.109 Y  67.164
G1 X -14.400 Y  67.052
G1 X -14.694 Y  66.948
G1 X -14.989 Y  66.852
G1 X -15.286 Y  66.763
G1 X -15.586 Y  66.681
G1 X -15.887 Y  66.607
G1 X -16.190 Y  66.540
G1 X -16.494 Y  66.480
G1 X -16.800 Y  66.428
G1 X -17.107 Y  66.383
G1 X -17.415 Y  66.346
G1 X -17.724 Y  66.317
G1 X -18.034 Y  66.295
G1 X -18.344 Y  66.281
G1 X -18.654 Y  66.274
G1 X -18.964 Y  66.276
G1 X -19.283 Y  66.284
G1 X -19.602 Y  66.301
G1 X -19.919 Y  66.326
G1 X -20.237 Y  66.359
G1 X -20.553 Y  66.399
G1 X -20.868 Y  66.447
G1 X -20.869 Y  66.448
G1 X -31.669 Y  68.248
G1 X -31.960 Y  68.300
G1 X -32.250 Y  68.358
G1 X -32.539 Y  68.423
G1 X -32.826 Y  68.495
G1 X -33.112 Y  68.574
G1 X -33.395 Y  68.659
G1 X -33.679 Y  68.752
G1 X -33.960 Y  68.851
G1 X -34.239 Y  68.956
G1 X -34.516 Y  69.068
G1 X -34.789 Y  69.187
G1 X -35.060 Y  69.312
G1 X -35.328 Y  69.444
G1 X -35.592 Y  69.581
G1 X -35.854 Y  69.725
G1 X -36.111 Y  69.875
G1 X -36.366 Y  70.031
G1 X -36.616 Y  70.193
G1 X -36.862 Y  70.361
G1 X -37.105 Y  70.535
G1 X -37.354 Y  70.722
G1 X -37.597 Y  70.915
G1 X -37.837 Y  71.114
G1 X -38.071 Y  71.318
G1 X -38.300 Y  71.529
G1 X -38.524 Y  71.744
G1 X -38.742 Y  71.966
G1 X -38.956 Y  72.192
G1 X -39.163 Y  72.424
G1 X -39.365 Y  72.660
G1 X -39.561 Y  72.902
G1 X -39.751 Y  73.148
G1 X -39.936 Y  73.399
G1 X -40.114 Y  73.654
G1 X -40.285 Y  73.913
G1 X -40.451 Y  74.177
G1 X -40.610 Y  74.444
G1 X -40.762 Y  74.715
G1 X -40.908 Y  74.990
G1 X -41.046 Y  75.268
G1 X -41.179 Y  75.550
G1 X -41.304 Y  75.835
G1 X -41.422 Y  76.122
G1 X -41.528 Y  76.399
G1 X -41.628 Y  76.678
G1 X -41.721 Y  76.959
G1 X -41.807 Y  77.242
G1 X -41.887 Y  77.527
G1 X -41.960 Y  77.814
G1 X -42.026 Y  78.103
G1 X -42.086 Y  78.393
G1 X -42.138 Y  78.684
G1 X -42.184 Y  78.977
G1 X -42.223 Y  79.270
G1 X -42.256 Y  79.565
G1 X -42.281 Y  79.860
G1 X -42.299 Y  80.155
G1 X -42.311 Y  80.457
G1 X -42.315 Y  80.760
G1 X -42.313 Y  81.062
G1 X -42.303 Y  81.364
G1 X -42.286 Y  81.666
G1 X -42.262 Y  81.967
G1 X -42.262 Y  81.973
G1 X -42.260 Y  81.994
G1 X -41.428 Y  90.487
F150
G1 Z  30.000
G0 Z 100.000 
M9 M5

(* SHAPE Nr: 2 *)
G0 X   0.660 Y  77.374
M3 M8
G0 Z  30.000 
G1 Z  30.000
F200
G1 X   0.793 Y  76.552
G1 X   0.871 Y  76.184
G1 X   0.959 Y  75.819
G1 X   1.058 Y  75.457
G1 X   1.168 Y  75.098
G1 X   1.275 Y  74.778
G1 X   1.391 Y  74.462
G1 X   1.515 Y  74.149
G1 X   1.647 Y  73.840
G1 X   1.787 Y  73.534
G1 X   1.936 Y  73.232
G1 X   2.092 Y  72.934
G1 X   2.257 Y  72.640
G1 X   2.429 Y  72.351
G1 X   2.609 Y  72.067
G1 X   2.796 Y  71.787
G1 X   2.991 Y  71.513
G1 X   3.193 Y  71.243
G1 X   3.395 Y  70.988
G1 X   3.603 Y  70.738
G1 X   3.818 Y  70.493
G1 X   4.039 Y  70.254
G1 X   4.266 Y  70.021
G1 X   4.499 Y  69.793
G1 X   4.737 Y  69.572
G1 X   4.981 Y  69.357
G1 X   5.231 Y  69.147
G1 X   5.485 Y  68.945
G1 X   5.745 Y  68.749
G1 X   6.010 Y  68.559
G1 X   6.280 Y  68.377
G1 X   6.554 Y  68.201
G1 X   6.832 Y  68.032
G1 X   7.115 Y  67.871
G1 X   7.401 Y  67.716
G1 X   7.692 Y  67.569
G1 X   7.986 Y  67.430
G1 X   8.284 Y  67.298
G1 X   8.584 Y  67.174
G1 X   8.888 Y  67.057
G1 X   9.195 Y  66.948
G1 X   9.513 Y  66.845
G1 X   9.833 Y  66.750
G1 X  10.156 Y  66.663
G1 X  10.481 Y  66.585
G1 X  10.808 Y  66.516
G1 X  11.136 Y  66.455
G1 X  11.466 Y  66.403
G1 X  11.798 Y  66.360
G1 X  12.130 Y  66.325
G1 X  12.463 Y  66.300
G1 X  12.797 Y  66.283
G1 X  13.131 Y  66.275
G1 X  13.465 Y  66.276
G1 X  13.848 Y  66.287
G1 X  14.230 Y  66.310
G1 X  14.611 Y  66.345
G1 X  14.991 Y  66.390
G1 X  15.369 Y  66.447
G1 X  26.169 Y  68.248
G1 X  26.507 Y  68.308
G1 X  26.843 Y  68.378
G1 X  27.177 Y  68.456
G1 X  27.509 Y  68.544
G1 X  27.838 Y  68.640
G1 X  28.150 Y  68.741
G1 X  28.460 Y  68.849
G1 X  28.768 Y  68.966
G1 X  29.071 Y  69.090
G1 X  29.372 Y  69.223
G1 X  29.669 Y  69.363
G1 X  29.962 Y  69.511
G1 X  30.252 Y  69.666
G1 X  30.537 Y  69.829
G1 X  30.818 Y  69.999
G1 X  31.094 Y  70.176
G1 X  31.366 Y  70.361
G1 X  31.633 Y  70.552
G1 X  31.897 Y  70.752
G1 X  32.156 Y  70.959
G1 X  32.409 Y  71.172
G1 X  32.656 Y  71.392
G1 X  32.898 Y  71.618
G1 X  33.134 Y  71.851
G1 X  33.364 Y  72.089
G1 X  33.587 Y  72.333
G1 X  33.804 Y  72.583
G1 X  34.015 Y  72.839
G1 X  34.219 Y  73.100
G1 X  34.416 Y  73.366
G1 X  34.606 Y  73.637
G1 X  34.789 Y  73.913
G1 X  34.965 Y  74.194
G1 X  35.133 Y  74.479
G1 X  35.294 Y  74.768
G1 X  35.447 Y  75.062
G1 X  35.593 Y  75.359
G1 X  35.731 Y  75.660
G1 X  35.861 Y  75.964
G1 X  35.987 Y  76.280
G1 X  36.103 Y  76.600
G1 X  36.212 Y  76.922
G1 X  36.311 Y  77.247
G1 X  36.402 Y  77.575
G1 X  36.484 Y  77.905
G1 X  36.557 Y  78.237
G1 X  36.621 Y  78.571
G1 X  36.676 Y  78.906
G1 X  36.722 Y  79.243
G1 X  36.759 Y  79.581
G1 X  36.787 Y  79.920
G1 X  36.806 Y  80.259
G1 X  36.815 Y  80.601
G1 X  36.816 Y  80.943
G1 X  36.807 Y  81.285
G1 X  36.790 Y  81.626
G1 X  36.763 Y  81.967
G1 X  36.759 Y  82.013
G1 X  35.962 Y  90.149
G1 X  35.929 Y  90.487
F150
G1 Z  30.000
G0 Z 100.000 
M9 M5

(* SHAPE Nr: 9 *)
G0 X -26.050 Y  31.463
M3 M8
G0 Z  30.000 
G1 Z  30.000
F200
G1 X -22.342 Y   6.197
F150
G1 Z  30.000
G0 Z 100.000 
M9 M5

(* SHAPE Nr: 4 *)
G0 X  18.578 Y  31.753
M3 M8
G0 Z  30.000 
G1 Z  30.000
F200
G1 X  14.864 Y   6.487
F150
G1 Z  30.000
G0 Z 100.000 
M9 M5
G0 X   0.000 Y   0.000
M2 (Program end)