(Generated with: DXF2GCODE, Version: Py3.7.10 PyQt5.10.1, Date: $Date: Fri Oct 25 20:45:56 2019 +0200 $)
(Created from file: /home/lucas/钢铁侠.dxf)
(Output format description: G-CODE for LinuxCNC)
(Time: Mon Jul 19 18:04:03 2021)
G21 (Units in millimeters)
G90 (Absolute programming)
G64 (Default cutting) G17 (XY plane) G40 (Cancel radius comp.) G49 (Cancel length comp.)
G0 Z 100.000 

(*** LAYER: _U+56FE_U+5C42 1 ***)
T1 M6
S6000

(* SHAPE Nr: 7 *)
G0 X  -6.159 Y  77.374
M3 M8
G0 Z  30.000 
G1 Z  30.000
F200
G1 X  -6.202 Y  77.070
G1 X  -6.226 Y  76.921
G1 X  -6.281 Y  76.613
G1 X  -6.343 Y  76.306
G1 X  -6.413 Y  76.001
G1 X  -6.490 Y  75.698
G1 X  -6.575 Y  75.397
G1 X  -6.667 Y  75.098
G1 X  -6.766 Y  74.801
G1 X  -6.873 Y  74.507
G1 X  -6.986 Y  74.216
G1 X  -7.107 Y  73.928
G1 X  -7.235 Y  73.643
G1 X  -7.370 Y  73.361
G1 X  -7.512 Y  73.083
G1 X  -7.661 Y  72.808
G1 X  -7.816 Y  72.537
G1 X  -7.979 Y  72.269
G1 X  -8.147 Y  72.006
G1 X  -8.322 Y  71.748
G1 X  -8.504 Y  71.493
G1 X  -8.692 Y  71.243
G1 X  -8.885 Y  70.999
G1 X  -9.085 Y  70.759
G1 X  -9.290 Y  70.524
G1 X  -9.501 Y  70.294
G1 X  -9.717 Y  70.069
G1 X  -9.939 Y  69.850
G1 X -10.166 Y  69.636
G1 X -10.398 Y  69.428
G1 X -10.636 Y  69.225
G1 X -10.878 Y  69.028
G1 X -11.125 Y  68.838
G1 X -11.376 Y  68.653
G1 X -11.632 Y  68.475
G1 X -11.892 Y  68.303
G1 X -12.157 Y  68.137
G1 X -12.425 Y  67.978
G1 X -12.697 Y  67.825
G1 X -12.973 Y  67.679
G1 X -13.252 Y  67.540
G1 X -13.535 Y  67.407
G1 X -13.820 Y  67.282
G1 X -14.109 Y  67.164
G1 X -14.400 Y  67.052
G1 X -14.694 Y  66.948
G1 X -14.989 Y  66.852
G1 X -15.286 Y  66.763
G1 X -15.586 Y  66.681
G1 X -15.887 Y  66.607
G1 X -16.190 Y  66.540
G1 X -16.494 Y  66.480
G1 X -16.800 Y  66.428
G1 X -17.107 Y  66.383
G1 X -17.415 Y  66.346
G1 X -17.724 Y  66.317
G1 X -18.034 Y  66.295
G1 X -18.344 Y  66.281
G1 X -18.654 Y  66.274
G1 X -18.964 Y  66.276
G1 X -19.283 Y  66.284
G1 X -19.602 Y  66.301
G1 X -19.919 Y  66.326
G1 X -20.237 Y  66.359
G1 X -20.553 Y  66.399
G1 X -20.868 Y  66.447
G1 X -20.869 Y  66.448
G1 X -31.669 Y  68.248
G1 X -31.960 Y  68.300
G1 X -32.250 Y  68.358
G1 X -32.539 Y  68.423
G1 X -32.826 Y  68.495
G1 X -33.112 Y  68.574
G1 X -33.395 Y  68.659
G1 X -33.679 Y  68.752
G1 X -33.960 Y  68.851
G1 X -34.239 Y  68.956
G1 X -34.516 Y  69.068
G1 X -34.789 Y  69.187
G1 X -35.060 Y  69.312
G1 X -35.328 Y  69.444
G1 X -35.592 Y  69.581
G1 X -35.854 Y  69.725
G1 X -36.111 Y  69.875
G1 X -36.366 Y  70.031
G1 X -36.616 Y  70.193
G1 X -36.862 Y  70.361
G1 X -37.105 Y  70.535
G1 X -37.354 Y  70.722
G1 X -37.597 Y  70.915
G1 X -37.837 Y  71.114
G1 X -38.071 Y  71.318
G1 X -38.300 Y  71.529
G1 X -38.524 Y  71.744
G1 X -38.742 Y  71.966
G1 X -38.956 Y  72.192
G1 X -39.163 Y  72.424
G1 X -39.365 Y  72.660
G1 X -39.561 Y  72.902
G1 X -39.751 Y  73.148
G1 X -39.936 Y  73.399
G1 X -40.114 Y  73.654
G1 X -40.285 Y  73.913
G1 X -40.451 Y  74.177
G1 X -40.610 Y  74.444
G1 X -40.762 Y  74.715
G1 X -40.908 Y  74.990
G1 X -41.046 Y  75.268
G1 X -41.179 Y  75.550
G1 X -41.304 Y  75.835
G1 X -41.422 Y  76.122
G1 X -41.528 Y  76.399
G1 X -41.628 Y  76.678
G1 X -41.721 Y  76.959
G1 X -41.807 Y  77.242
G1 X -41.887 Y  77.527
G1 X -41.960 Y  77.814
G1 X -42.026 Y  78.103
G1 X -42.086 Y  78.393
G1 X -42.138 Y  78.684
G1 X -42.184 Y  78.977
G1 X -42.223 Y  79.270
G1 X -42.256 Y  79.565
G1 X -42.281 Y  79.860
G1 X -42.299 Y  80.155
G1 X -42.311 Y  80.457
G1 X -42.315 Y  80.760
G1 X -42.313 Y  81.062
G1 X -42.303 Y  81.364
G1 X -42.286 Y  81.666
G1 X -42.262 Y  81.967
G1 X -42.262 Y  81.973
G1 X -42.260 Y  81.994
G1 X -41.428 Y  90.487
F150
G1 Z  30.000
G0 Z 100.000 
M9 M5

(* SHAPE Nr: 2 *)
G0 X   0.660 Y  77.374
M3 M8
G0 Z  30.000 
G1 Z  30.000
F200
G1 X   0.793 Y  76.552
G1 X   0.871 Y  76.184
G1 X   0.959 Y  75.819
G1 X   1.058 Y  75.457
G1 X   1.168 Y  75.098
G1 X   1.275 Y  74.778
G1 X   1.391 Y  74.462
G1 X   1.515 Y  74.149
G1 X   1.647 Y  73.840
G1 X   1.787 Y  73.534
G1 X   1.936 Y  73.232
G1 X   2.092 Y  72.934
G1 X   2.257 Y  72.640
G1 X   2.429 Y  72.351
G1 X   2.609 Y  72.067
G1 X   2.796 Y  71.787
G1 X   2.991 Y  71.513
G1 X   3.193 Y  71.243
G1 X   3.395 Y  70.988
G1 X   3.603 Y  70.738
G1 X   3.818 Y  70.493
G1 X   4.039 Y  70.254
G1 X   4.266 Y  70.021
G1 X   4.499 Y  69.793
G1 X   4.737 Y  69.572
G1 X   4.981 Y  69.357
G1 X   5.231 Y  69.147
G1 X   5.485 Y  68.945
G1 X   5.745 Y  68.749
G1 X   6.010 Y  68.559
G1 X   6.280 Y  68.377
G1 X   6.554 Y  68.201
G1 X   6.832 Y  68.032
G1 X   7.115 Y  67.871
G1 X   7.401 Y  67.716
G1 X   7.692 Y  67.569
G1 X   7.986 Y  67.430
G1 X   8.284 Y  67.298
G1 X   8.584 Y  67.174
G1 X   8.888 Y  67.057
G1 X   9.195 Y  66.948
G1 X   9.513 Y  66.845
G1 X   9.833 Y  66.750
G1 X  10.156 Y  66.663
G1 X  10.481 Y  66.585
G1 X  10.808 Y  66.516
G1 X  11.136 Y  66.455
G1 X  11.466 Y  66.403
G1 X  11.798 Y  66.360
G1 X  12.130 Y  66.325
G1 X  12.463 Y  66.300
G1 X  12.797 Y  66.283
G1 X  13.131 Y  66.275
G1 X  13.465 Y  66.276
G1 X  13.848 Y  66.287
G1 X  14.230 Y  66.310
G1 X  14.611 Y  66.345
G1 X  14.991 Y  66.390
G1 X  15.369 Y  66.447
G1 X  26.169 Y  68.248
G1 X  26.507 Y  68.308
G1 X  26.843 Y  68.378
G1 X  27.177 Y  68.456
G1 X  27.509 Y  68.544
G1 X  27.838 Y  68.640
G1 X  28.150 Y  68.741
G1 X  28.460 Y  68.849
G1 X  28.768 Y  68.966
G1 X  29.071 Y  69.090
G1 X  29.372 Y  69.223
G1 X  29.669 Y  69.363
G1 X  29.962 Y  69.511
G1 X  30.252 Y  69.666
G1 X  30.537 Y  69.829
G1 X  30.818 Y  69.999
G1 X  31.094 Y  70.176
G1 X  31.366 Y  70.361
G1 X  31.633 Y  70.552
G1 X  31.897 Y  70.752
G1 X  32.156 Y  70.959
G1 X  32.409 Y  71.172
G1 X  32.656 Y  71.392
G1 X  32.898 Y  71.618
G1 X  33.134 Y  71.851
G1 X  33.364 Y  72.089
G1 X  33.587 Y  72.333
G1 X  33.804 Y  72.583
G1 X  34.015 Y  72.839
G1 X  34.219 Y  73.100
G1 X  34.416 Y  73.366
G1 X  34.606 Y  73.637
G1 X  34.789 Y  73.913
G1 X  34.965 Y  74.194
G1 X  35.133 Y  74.479
G1 X  35.294 Y  74.768
G1 X  35.447 Y  75.062
G1 X  35.593 Y  75.359
G1 X  35.731 Y  75.660
G1 X  35.861 Y  75.964
G1 X  35.987 Y  76.280
G1 X  36.103 Y  76.600
G1 X  36.212 Y  76.922
G1 X  36.311 Y  77.247
G1 X  36.402 Y  77.575
G1 X  36.484 Y  77.905
G1 X  36.557 Y  78.237
G1 X  36.621 Y  78.571
G1 X  36.676 Y  78.906
G1 X  36.722 Y  79.243
G1 X  36.759 Y  79.581
G1 X  36.787 Y  79.920
G1 X  36.806 Y  80.259
G1 X  36.815 Y  80.601
G1 X  36.816 Y  80.943
G1 X  36.807 Y  81.285
G1 X  36.790 Y  81.626
G1 X  36.763 Y  81.967
G1 X  36.759 Y  82.013
G1 X  35.962 Y  90.149
G1 X  35.929 Y  90.487
F150
G1 Z  30.000
G0 Z 100.000 
M9 M5

(* SHAPE Nr: 9 *)
G0 X -26.050 Y  31.463
M3 M8
G0 Z  30.000 
G1 Z  30.000
F200
G1 X -22.342 Y   6.197
F150
G1 Z  30.000
G0 Z 100.000 
M9 M5

(* SHAPE Nr: 4 *)
G0 X  18.578 Y  31.753
M3 M8
G0 Z  30.000 
G1 Z  30.000
F200
G1 X  14.864 Y   6.487
F150
G1 Z  30.000
G0 Z 100.000 
M9 M5
G0 X   0.000 Y   0.000
M2 (Program end)
